X:720
T:Willie Hunter's
R:polka
N:a.k.a. The Race Classic
Z:transcribed by Dave Marshall
M:2/4
L:1/8
K:A
|: A>B AE | FA E2 | FB BA/B/ | cB cB |
A>B AE | FA E2 | FB BA/B/ | cA A2 :|
|: e>f ec | Af fc | Bf Bf | g3e |
cg cg | a2 af | ec BA/B/ | cA A2 :|
